static/cards/FrenchDeck/default/card_diamonds_03.svg

<svg width="219" height="304" viewBox="0 0 219 304" fill="none" xmlns="http://www.w3.org/2000/svg">
<g filter="url(#filter0_d_18_659)">
<g clip-path="url(#clip0_18_659)">
<rect x="8" y="4" width="203" height="288" rx="10" fill="white"/>
<path d="M16.311 38.3945C16.311 37.4937 16.9316 36.853 17.8125 36.853C18.5132 36.853 18.9536 37.2134 19.4741 38.2344C20.5151 40.3765 22.5972 41.5776 25.3198 41.5776C28.9033 41.5776 31.1855 39.6157 31.1855 36.5527C31.1855 33.4897 28.8433 31.4277 25.3599 31.4277H22.8574C21.9365 31.4277 21.2559 30.7671 21.2559 29.9062C21.2559 29.0254 21.8965 28.4048 22.8574 28.4048H25.2197C28.1426 28.4048 30.2646 26.4229 30.2646 23.6802C30.2646 20.9375 28.2026 19.0957 25.1396 19.0957C22.7573 19.0957 20.9556 20.2769 20.1548 22.3389C19.7544 23.4399 19.2539 23.8604 18.4731 23.8604C17.5522 23.8604 16.9517 23.1997 16.9517 22.1987C16.9517 19.0957 20.2949 16.0928 25.2197 16.0928C30.2246 16.0928 33.7881 19.0757 33.7881 23.2397C33.7881 26.2627 31.5259 29.1455 28.7432 29.626V29.8262C32.1265 30.2065 34.709 33.1694 34.709 36.6128C34.709 41.2974 30.8252 44.5806 25.2598 44.5806C20.0947 44.5806 16.311 41.4575 16.311 38.3945Z" fill="#BC1E24"/>
<path d="M26.1801 52.104C26.1038 51.9653 25.8962 51.9653 25.8199 52.104C23.5263 56.2724 21.8722 58.4782 18.5553 61.8648C18.4816 61.9401 18.4816 62.0599 18.5553 62.1352C21.8722 65.5218 23.5263 67.7276 25.8199 71.896C25.8962 72.0347 26.1038 72.0347 26.1801 71.896C28.4737 67.7276 30.1278 65.5218 33.4447 62.1352C33.5184 62.0599 33.5184 61.9401 33.4447 61.8648C30.1278 58.4782 28.4737 56.2724 26.1801 52.104Z" fill="#BC1E24"/>
<path d="M202.689 257.605C202.689 258.506 202.068 259.147 201.188 259.147C200.487 259.147 200.046 258.787 199.526 257.766C198.485 255.624 196.403 254.422 193.68 254.422C190.097 254.422 187.814 256.384 187.814 259.447C187.814 262.51 190.157 264.572 193.64 264.572L196.143 264.572C197.063 264.572 197.744 265.233 197.744 266.094C197.744 266.975 197.104 267.595 196.143 267.595L193.78 267.595C190.857 267.595 188.735 269.577 188.735 272.32C188.735 275.062 190.797 276.904 193.86 276.904C196.243 276.904 198.044 275.723 198.845 273.661C199.246 272.56 199.746 272.14 200.527 272.14C201.448 272.14 202.048 272.8 202.048 273.801C202.048 276.904 198.705 279.907 193.78 279.907C188.775 279.907 185.212 276.924 185.212 272.76C185.212 269.737 187.474 266.854 190.257 266.374L190.257 266.174C186.874 265.793 184.291 262.831 184.291 259.387C184.291 254.703 188.175 251.419 193.74 251.419C198.905 251.419 202.689 254.542 202.689 257.605Z" fill="#BC1E24"/>
<path d="M192.82 243.896C192.896 244.035 193.104 244.035 193.18 243.896C195.474 239.728 197.128 237.522 200.445 234.135C200.518 234.06 200.518 233.94 200.445 233.865C197.128 230.478 195.474 228.272 193.18 224.104C193.104 223.965 192.896 223.965 192.82 224.104C190.526 228.272 188.872 230.478 185.555 233.865C185.482 233.94 185.482 234.06 185.555 234.135C188.872 237.522 190.526 239.728 192.82 243.896Z" fill="#BC1E24"/>
<path d="M109.95 27.2599C109.759 26.9134 109.241 26.9134 109.05 27.2599C103.316 37.6809 99.1805 43.1955 90.8882 51.6621C90.7039 51.8503 90.7039 52.1498 90.8882 52.338C99.1805 60.8045 103.316 66.3191 109.05 76.7401C109.241 77.0866 109.759 77.0866 109.95 76.7401C115.684 66.3191 119.819 60.8045 128.112 52.338C128.296 52.1498 128.296 51.8503 128.112 51.6621C119.819 43.1955 115.684 37.6809 109.95 27.2599Z" fill="#BC1E24"/>
<path d="M109.95 123.26C109.759 122.913 109.241 122.913 109.05 123.26C103.316 133.681 99.1805 139.196 90.8882 147.662C90.7039 147.85 90.7039 148.15 90.8882 148.338C99.1805 156.804 103.316 162.319 109.05 172.74C109.241 173.087 109.759 173.087 109.95 172.74C115.684 162.319 119.819 156.804 128.112 148.338C128.296 148.15 128.296 147.85 128.112 147.662C119.819 139.196 115.684 133.681 109.95 123.26Z" fill="#BC1E24"/>
<path d="M109.95 219.26C109.759 218.913 109.241 218.913 109.05 219.26C103.316 229.681 99.1805 235.196 90.8882 243.662C90.7039 243.85 90.7039 244.15 90.8882 244.338C99.1805 252.804 103.316 258.319 109.05 268.74C109.241 269.087 109.759 269.087 109.95 268.74C115.684 258.319 119.819 252.804 128.112 244.338C128.296 244.15 128.296 243.85 128.112 243.662C119.819 235.196 115.684 229.681 109.95 219.26Z" fill="#BC1E24"/>
</g>
</g>
<defs>
<filter id="filter0_d_18_659" x="0" y="0" width="219" height="304" filterUnits="userSpaceOnUse" color-interpolation-filters="sRGB">
<feFlood flood-opacity="0" result="BackgroundImageFix"/>
<feColorMatrix in="SourceAlpha" type="matrix" values="0 0 0 0 0 0 0 0 0 0 0 0 0 0 0 0 0 0 127 0" result="hardAlpha"/>
<feOffset dy="4"/>
<feGaussianBlur stdDeviation="4"/>
<feComposite in2="hardAlpha" operator="out"/>
<feColorMatrix type="matrix" values="0 0 0 0 0.614771 0 0 0 0 0.70094 0 0 0 0 0.806257 0 0 0 1 0"/>
<feBlend mode="normal" in2="BackgroundImageFix" result="effect1_dropShadow_18_659"/>
<feBlend mode="normal" in="SourceGraphic" in2="effect1_dropShadow_18_659" result="shape"/>
</filter>
<clipPath id="clip0_18_659">
<rect x="8" y="4" width="203" height="288" rx="10" fill="white"/>
</clipPath>
</defs>
</svg>

<svg xmlns="http://www.w3.org/2000/svg" width="219" height="304" fill="none" viewBox="0 0 219 304"><g filter="url(#a)"><g clip-path="url(#b)"><rect width="203" height="288" x="8" y="4" fill="#fff" rx="10"/><path fill="#bc1e24" d="M16.311 38.395c0-.901.62-1.542 1.502-1.542.7 0 1.14.36 1.661 1.381 1.041 2.142 3.123 3.344 5.846 3.344 3.583 0 5.866-1.962 5.866-5.025s-2.343-5.125-5.826-5.125h-2.503c-.92 0-1.601-.66-1.601-1.522 0-.88.64-1.501 1.601-1.501h2.363c2.923 0 5.045-1.982 5.045-4.725s-2.062-4.584-5.125-4.584c-2.383 0-4.184 1.18-4.985 3.243-.4 1.1-.901 1.521-1.682 1.521-.92 0-1.521-.66-1.521-1.661 0-3.103 3.343-6.106 8.268-6.106 5.005 0 8.568 2.983 8.568 7.147 0 3.023-2.262 5.906-5.045 6.386v.2c3.384.38 5.966 3.343 5.966 6.787 0 4.684-3.884 7.968-9.45 7.968-5.164 0-8.948-3.123-8.948-6.187M26.18 52.104a.208.208 0 0 0-.36 0c-2.294 4.168-3.948 6.374-7.265 9.76a.193.193 0 0 0 0 .271c3.317 3.387 4.971 5.593 7.265 9.761a.208.208 0 0 0 .36 0c2.294-4.168 3.948-6.374 7.265-9.76a.193.193 0 0 0 0-.271c-3.317-3.387-4.971-5.593-7.265-9.761M202.689 257.605c0 .901-.621 1.542-1.501 1.542-.701 0-1.142-.36-1.662-1.381-1.041-2.142-3.123-3.344-5.846-3.344-3.583 0-5.866 1.962-5.866 5.025s2.343 5.125 5.826 5.125h2.503c.92 0 1.601.661 1.601 1.522 0 .881-.64 1.501-1.601 1.501h-2.363c-2.923 0-5.045 1.982-5.045 4.725s2.062 4.584 5.125 4.584c2.383 0 4.184-1.181 4.985-3.243.401-1.101.901-1.521 1.682-1.521.921 0 1.521.66 1.521 1.661 0 3.103-3.343 6.106-8.268 6.106-5.005 0-8.568-2.983-8.568-7.147 0-3.023 2.262-5.906 5.045-6.386v-.2c-3.383-.381-5.966-3.343-5.966-6.787 0-4.684 3.884-7.968 9.449-7.968 5.165 0 8.949 3.123 8.949 6.186M192.82 243.896a.208.208 0 0 0 .36 0c2.294-4.168 3.948-6.374 7.265-9.761a.194.194 0 0 0 0-.27c-3.317-3.387-4.971-5.593-7.265-9.761a.208.208 0 0 0-.36 0c-2.294 4.168-3.948 6.374-7.265 9.761a.194.194 0 0 0 0 .27c3.317 3.387 4.971 5.593 7.265 9.761M109.95 27.26a.52.52 0 0 0-.9 0c-5.734 10.42-9.87 15.936-18.162 24.402a.48.48 0 0 0 0 .676c8.292 8.466 12.428 13.981 18.162 24.402a.52.52 0 0 0 .9 0c5.734-10.42 9.869-15.935 18.162-24.402a.483.483 0 0 0 0-.676c-8.293-8.466-12.428-13.981-18.162-24.402M109.95 123.26a.52.52 0 0 0-.9 0c-5.734 10.421-9.87 15.936-18.162 24.402a.48.48 0 0 0 0 .676c8.292 8.466 12.428 13.981 18.162 24.402a.52.52 0 0 0 .9 0c5.734-10.421 9.869-15.936 18.162-24.402a.483.483 0 0 0 0-.676c-8.293-8.466-12.428-13.981-18.162-24.402M109.95 219.26a.52.52 0 0 0-.9 0c-5.734 10.421-9.87 15.936-18.162 24.402a.48.48 0 0 0 0 .676c8.292 8.466 12.428 13.981 18.162 24.402a.52.52 0 0 0 .9 0c5.734-10.421 9.869-15.936 18.162-24.402a.483.483 0 0 0 0-.676c-8.293-8.466-12.428-13.981-18.162-24.402"/></g></g><defs><clipPath id="b"><rect width="203" height="288" x="8" y="4" fill="#fff" rx="10"/></clipPath><filter id="a" width="219" height="304" x="0" y="0" color-interpolation-filters="sRGB" filterUnits="userSpaceOnUse"><feFlood flood-opacity="0" result="BackgroundImageFix"/><feColorMatrix in="SourceAlpha" result="hardAlpha" values="0 0 0 0 0 0 0 0 0 0 0 0 0 0 0 0 0 0 127 0"/><feOffset dy="4"/><feGaussianBlur stdDeviation="4"/><feComposite in2="hardAlpha" operator="out"/><feColorMatrix values="0 0 0 0 0.614771 0 0 0 0 0.70094 0 0 0 0 0.806257 0 0 0 1 0"/><feBlend in2="BackgroundImageFix" result="effect1_dropShadow_18_659"/><feBlend in="SourceGraphic" in2="effect1_dropShadow_18_659" result="shape"/></filter></defs></svg>
